X:1
T:Dinny O'Keefe's
R:Slide
M:12/8
L:1/8
K:D
%%printtempo 0
Q:160
"Am"E2 A ABA "G"G2A Bcd|"Am" e2A ABA "G"G3 F2G|"Am"E2A ABA "G"G2A Bcd|"Am"efe "G"dcB "Am"A3 d3 :|
|: "Em"~e3 efe "D"~d3 dcd|"Am"e2A ABA "G"G3 F2G|"Am"E2A ABA "G"G2A Bcd|"Am"efe "G"dcB "A"A3 A3:|
